X:1
T:MARCH FROM "GUILLAUME TELL"
T:MARCH FROM "GUILLAUME TELL"
T:Rossini.
C:Rossini.
L:1/8
Q:1/4=120
M:2/4
K:D
V:1 treble 
V:1
"^Lively." A/A/ |!p! AA/A/ AA/A/ | .d.e .f A/A/ | AA/A/ df | ec A A/A/ | AA/A/ AA/A/ | de f d/>f/ | %7
!f! a>a a/g/f/e/ | df d :: !fermata!f/f/ | ff/f/ ff/f/ | fbfb | fbfe | d/e/c/d/ Bf/f/ | %14
 ff/f/ ff/f/ | fbfb | fba^g | [aa]^g a z |"^cres." e"^>" e2 f | g"^>" e2 g | f"^>" d2 f | e2 z f | %22
 e"^>" e2 f | g"^>" e2 g | f"^>" d2 f | !fermata!e2 z2!D.C.! :| %26

